!!!!SEGMENT: pl-sa--481-a-viii-121--042_anonim--duma.krn
!!!id: 18xx:413
!!!COM: Anonim
!!!COM-rism: pe30004985
!!!CDT:
!!!CNT:
!!!OTL: Duma
!!!PDT:
!!!SMS-siglum: PL-SA
!!!SMS-shelfmark: 481/A VIII 121
!!!NIFC-rismID: 1001070717
!!!URL-scan: http://bc.bdsandomierz.pl/dlibra/publication/1212/edition/1171/content
!!!ONB-nifc: Str. 28, s. 1-4
!!!SMS-variant:
!!!SMS-altvar:
**kern	**kern
*part2	*part1
*staff2	*staff1
*I"Piano	*I"Piano
*clefF4	*clefG2
*k[]	*k[]
*M3/8	*M3/8
*>[A,A,B,B]	*>[A,A,B,B]
=1	=1
*>A	*>A
*^	*
*tremolo	*tremolo	*
!LO:TX:a:t=P:problem:caudy - niekonsekwentne pozycje:global	!	!
8E/ 8AL	8AA\ 8CL	8.a/L
8E/ 8A	8AA\ 8C	.
!	!	!LO:TX:a:t=P:problem:caudy - niekonsekwentne pozycje:global
!	!	!LO:SIC:s=16f:v
.	.	16e/L
8E/ 8AJ	8AA\ 8CJ	16cc/
.	.	16a/JJ
=2	=2	=2
8A/L	8AA\ 8C 8EL	8.ee\L
8A/	8AA\ 8C 8E	.
.	.	16cc\L
8A/J	8AA\ 8C 8EJ	16b\
.	.	16a\JJ
=3	=3	=3
8G#X/ 8BL	8E\L	16a/LL
.	.	16g#X/
8G#X/ 8B	8E\	16g#/
.	.	16a/JJ
!	!	!LO:TX:a:t=P:problem:duola nieoznaczona numerem / łukiem
8G#X/ 8BJ	8E\J	16b/LL
.	.	16g#/JJ
=4	=4	=4
!LO:SIC:n=2:s=4.G#:v	!	!
8G/ 8BL	8E\L	4e/
8G/ 8B	8E\	.
8G/ 8BJ	8E\J	16f/LL
.	.	16g#X/JJ
=5	=5	=5
8E/ 8AL	8AA\ 8CL	8a/L
8E/ 8A	8AA\ 8C	8a/
8E/ 8AJ	8AA\ 8CJ	8a/J 8cc
=6	=6	=6
*tremolo	*tremolo	*
8B/L	8E\ 8G#XL	8g#X/L 8b
8B/	8E\ 8G#X	8g#/ 8b
8B/J	8E\ 8G#XJ	16cc/L 16ee
.	.	16b/JJ 16dd
*Xtremolo	*Xtremolo	*
*v	*v	*
=7	=7
8E\L	4b/ 4dd
8G#X\	.
8A\J	8a/ 8cc
!LO:LB:g=original	!LO:LB:g=original
=8	=8
!LO:TX:a:t=P:problem:mixed beam	!
8E\L	8g#X/ 8b
8EE/J	8r
!	!LO:SIC:s=8e:v
8r	8d/
=9	=9
*^	*
*tremolo	*tremolo	*
8C/ 8E 8AL	8AA\L	8.a/L
8C/ 8E 8A	8AA\	.
!	!	!LO:SIC:s=16f:v
.	.	16e/L
8C/ 8E 8AJ	8AA\J	16cc/
.	.	16a/JJ
=10	=10	=10
8C/ 8E 8AL	8AA\L	8.ee\L
8C/ 8E 8A	8AA\	.
.	.	16cc\L
8C/ 8E 8AJ	8AA\J	16b\
.	.	16a\JJ
=11	=11	=11
8G#X/ 8BL	8E\L	16a/LL
.	.	16g#X/
8G#X/ 8B	8E\	16g#/
.	.	16a/JJ
8G#X/ 8BJ	8E\J	16b/LL
.	.	16g#/JJ
=12	=12	=12
8G#X/ 8BL	8E\L	4e/
8G#X/ 8B	8E\	.
8G#X/ 8BJ	8E\J	16f/LL
.	.	16g#X/JJ
=13	=13	=13
*tremolo	*tremolo	*
8A/L	8AA\ 8C 8EL	8a/L
8A/	8AA\ 8C 8E	8a/
8A/J	8AA\ 8C 8EJ	16cc/L
.	.	16a/JJ
*Xtremolo	*Xtremolo	*
*v	*v	*
=14	=14
8E\L	8g#X/L 8b
8G#X\	8g#/J 8b
8E\J	16dd/LL
.	16g#X/JJ
=15	=15
8A\L	8a/L
8E\	8a/
8C\J	8a/J
=	=
4AA/	4a/
=16:|!|:	=16:|!|:
*>B	*>B
8r	8d/ 8b
=17	=17
*^	*
*tremolo	*tremolo	*
!	!	!LO:SIC:n=2:s=4e:v
8E/ 8GL	8C\L	4d/ 4cc
8E/ 8G	8C\	.
8E/ 8GJ	8C\J	8cc\ 8ee
=18	=18	=18
*tremolo	*tremolo	*
8E/ 8GL	8C\L	4cc\ 4ee
8E/ 8G	8C\	.
8E/ 8GJ	8C\J	8ee\ 8gg
*Xtremolo	*Xtremolo	*
*v	*v	*
!LO:LB:g=original	!LO:LB:g=original
=19	=19
!LO:TX:a:t=P:problem:mixed beam	!
8C/L	8.ee\L 8.gg
8c\	.
.	16ff\L 16aa
8C/J	16cc\ 16ee
.	16ee\JJ 16gg
=20	=20
*	*^
!LO:TX:a:t=P:problem:mixed beam	!	!
8G\L	8gg/	8dd\
!	!LO:N:vis=4	!
8GG/J	8ff/	4dd\
8r	8g/	.
=21	=21	=21
*^	*	*
*tremolo	*tremolo	*	*
8G/L	8GG\ 8BB 8DL	4g/	4ryy
8G/	8GG\ 8BB 8D	.	.
8G/J	8GG\ 8BB 8DJ	8b/	8g\
=22	=22	=22	=22
*tremolo	*tremolo	*	*
8G/L	8GG\ 8BB 8DL	4b/	4g\
8G/	8GG\ 8BB 8D	.	.
8G/J	8GG\ 8BB 8DJ	8b\ 8dd	8ryy
*Xtremolo	*Xtremolo	*	*
*v	*v	*	*
*	*v	*v
=23	=23
8G\L	8.b\L 8.dd
8B\	.
.	16dd\L 16ff
8G\J	16cc\ 16ee
.	16b\JJ 16dd
=24	=24
!LO:TX:a:t=P:problem:mixed beam	!
8A\L	8ee\L
8E\	16ee\L
.	16dd\
8AA/J	16cc\
.	16b\JJ
=25	=25
*^	*
*tremolo	*tremolo	*
8E/ 8AL	8AA\ 8CL	8.a/L
8E/ 8A	8AA\ 8C	.
.	.	16e/L
8E/ 8AJ	8AA\ 8CJ	16cc/
.	.	16a/JJ
=26	=26	=26
8E/ 8AL	8AA\ 8CL	8.ee\L
8E/ 8A	8AA\ 8C	.
.	.	16cc\L
8E/ 8AJ	8AA\ 8CJ	16b\
.	.	16a\JJ
=27	=27	=27
8B/L	8E\ 8G#XL	16a/LL
.	.	16g#X/
8B/	8E\ 8G#X	16g#/
.	.	16a/JJ
8B/J	8E\ 8G#XJ	16b/LL
.	.	16g#/JJ
=28	=28	=28
!LO:SIC:n=2:s=4.G#:v	!	!
8B/L	8E\ 8GL	4e/
8B/	8E\ 8G	.
8B/J	8E\ 8GJ	16f/LL
.	.	16g#X/JJ
=29	=29	=29
*tremolo	*tremolo	*
8A/L	8AA\ 8C 8EL	8a/L
8A/	8AA\ 8C 8E	8a/
8A/J	8AA\ 8C 8EJ	16cc/L
.	.	16a/JJ
*Xtremolo	*Xtremolo	*
*v	*v	*
!LO:LB:g=original	!LO:LB:g=original
=30	=30
8E\L	8g#X/L 8b
8G#X\	8g#/J 8b
!	!LO:TX:a:t=P:problem:mixed beam
8E/J	16ee/LL
.	16e/JJ
=31	=31
8A\L	8a/L
8E\	8a/
8C\J	8a/J
=32	=32
4AA/	4a/
=:|!;;	=:|!;;
*-	*-
!!!system-decoration: [(g1)]
!!!ENC:Anna Matuszewska
!!!END:2020-11-24
!!!ENC: Andrzej Kubiczek
!!!END: 2020-06-15
